X:1453
T:Polonesse in G Dur no 3 ur Anders Larssons notbok
S:Ur Anders Larssons notbok (1810-1813)
O:Östra Ryd, Östergötland
R:Slängpolska
Z:Till abc av Olle Paulsson
B: Anders Larssons notbok
B:http://www.smus.se/earkiv/fmk/browselarge.php?lang=sw&katalogid=M+189&bildnr=00004
M:3/4
L:1/16
K:G
g2gf g4 d4|B2cd e4 e4|d2ed c2dc B2cB|A2GF G4 G,4:|
|:B2Bc A4 A4|e2d^c d4 d4|g2f2e2f2g2a2|d2d^c d4 D4|
d2ef g4 g4|B2cd e4 e4|d2ed c2dc B2cB|A2GF G4 G,4:|
(:musicend:)
(:music:)
